!!!!SEGMENT: pl-kk--kk-i-7--035_anonim--patrem-omnipotentem.krn
!!!cenid: 16xx:829
!!!COM: Anonim
!!!COM-rismID: pe30004985
!!!CDT:
!!!CNT:
!!!OTL: Patrem omnipotentem
!!!PDT: 1668
!!!AGN: Sacred
!!!SMS-siglum: PL-Kk
!!!SMS-shelfmark: Kk.I.7
!!!SMS-shelfwork: 035 W
!!!SMS-variant:
!!!SMS-altvar:
!!!NIFC-rismSourceID: 300258112
!!!NIFC-islandoraID: pl-kk:1956
!!!URL-pdf-islandora: https://repozytorium.nifc.pl/islandora/object/pl-kk%3A1956/datastream/PDF/view
!!!URL-scan: https://polish.musicsources.pl/pl/lokalizacje/galeria/rekopisy/6140 @EN{Scan on Polish Music Herritage in Open Access Website} @PL{Skany w portalu Dziedzictwo Muzyki Polskiej w otwartym dostępie}
!!!ONB-nifc: UWAGA: C (skan 0025-0027, s.45-48), A (0112-0113, s.44-47), T(0187-0188, s.38-40), B(0279-0280, s.46-49). Następny utwór: Missa
!!!AIN: 1 alto 1 bass 1 soprn 1 tenor
!!!key:
**kern	**text	**kern	**text	**kern	**text	**kern	**text
*part4	*part4	*part3	*part3	*part2	*part2	*part1	*part1
*staff4	*staff4	*staff3	*staff3	*staff2	*staff2	*staff1	*staff1
*group1	*	*group1	*	*group1	*	*group1	*
*Ibass	*	*Itenor	*	*Ialto	*	*Isoprn	*
*I"BASSVS.	*	*I"TENOR.	*	*I"ALTVS.	*	*I"CANTVS.	*
*I'B	*	*I'T	*	*I'A	*	*I'S	*
*clefF4	*	*clefC4	*	*clefC4	*	*clefC3	*
*k[]	*	*k[]	*	*k[]	*	*k[]	*
*C:	*	*C:	*	*C:	*	*C:	*
*M2/1	*	*M2/1	*	*M2/1	*	*M2/1	*
*met(C|)	*	*met(C|)	*	*met(C|)	*	*met(C|)	*
=1-	=1-	=1-	=1-	=1-	=1-	=1-	=1-
*all\right	*	*all\right	*	*all\right	*	*all\right	*
*	*	*lig	*	*2\right	*	*	*
!LO:TX:a:t=Dominicale \na 4 Vo.	!	!LO:TX:a:t=Ad AEquales Dominicale a 4 V.	!	!LO:TX:a:t=Dominicale ad \nAEquales a. 4.	!	!LO:TX:a:t=Dominicale Patrem ad AEquales 4 Voc. Cant(us)	!
1.D	Pa-	1D	PA-	2d\	PA-	1f	PA-
.	.	.	.	2d\	-trem	.	.
.	.	1A	.	2.f\	o-	1d	-trem
2D/	-trem	.	.	.	.	.	.
.	.	.	.	4e\	.	.	.
*2\right	*	*Xlig	*	*	*	*	*
=2-	=2-	=2-	=2-	=2-	=2-	=2-	=2-
2.F\	o-	1A	-trem	2d\	-mni-	1a	O-
.	.	.	.	2c\	-po-	.	.
4E\	-mni-	.	.	.	.	.	.
*	*	*lig	*	*	*	*2\right	*
1D	-po-	1A	o-	1d	-ten-	2f\	-mni-
.	.	.	.	.	.	1f	-po-
=3-	=3-	=3-	=3-	=3-	=3-	=3-	=3-
1C	-ten-	1c	.	1G	-tem	.	.
.	.	.	.	.	.	2e\	-ten-
*	*	*Xlig	*	*	*	*	*
2FF,</	-te(m)	1A	-mni-	2r	.	2f\	-te(m)
*	*	*	*	*	*ij	*	*
1F	o-	.	.	2A/	om-	2c/	o-
=4-	=4-	=4-	=4-	=4-	=4-	=4-	=4-
*	*	*lig	*	*	*	*	*
.	.	1G	-po-	2B\	-ni-	2d\	-mni-
2E\	-mni-	.	.	2c\	-po-	2e\	-po-
2D/	-po-	1F	.	2.A\	-ten-	4f\	-ten-
.	.	.	.	.	.	4d\	-te(m)
*	*	*	*	*	*	*	*ij
2D/	-ten-	.	.	.	.	1f	o-
.	.	.	.	4B\	.	.	.
*	*	*Xlig	*	*	*	*	*
=5-	=5-	=5-	=5-	=5-	=5-	=5-	=5-
1C	-te(m)	1G	-ten-	4c\	.	.	.
.	.	.	.	4G/	.	.	.
.	.	.	.	1c	-tem	2e\	-mni-
*	*	*	*	*	*Xij	*	*
1GG	Fac-	1G	-te(m)	.	.	2d\	-po-
.	.	.	.	2B\	Fac-	2d\	-ten-
=6-	=6-	=6-	=6-	=6-	=6-	=6-	=6-
2C/	-to-	1E	Fa-	1G	-to-	2c,</	-te(m)
*	*	*	*	*	*	*	*Xij
2C/	-re(m)	.	.	.	.	2c/	Fac-
1D	cae-	1F	-cto-	2d\	-rem	4A/	-to-
.	.	.	.	.	.	4A/	-rem
.	.	.	.	2A/	cae-	2.d\	cae-
=7-	=7-	=7-	=7-	=7-	=7-	=7-	=7-
2BB/	-li	1G	-rem	2B\	-li	.	.
.	.	.	.	.	.	4d\	-li
2C/	et	.	.	2e\	et	1c	et
1GG	ter-	1G	cae-	1d	ter-	.	.
.	.	.	.	.	.	2B/	ter-
=8-	=8-	=8-	=8-	=8-	=8-	=8-	=8-
*	*	*	*	*custos:f	*	*	*
1C	-rae	1G	-li	1e	-rae	1c	-rae,
!	!	!	!	!LO:LB:g=original	!	!	!
1D	cae-	1F	et	2rd	.	2.A/	cae-
.	.	.	.	1f	cae-	.	.
.	.	.	.	.	.	4B/	-li
=9-	=9-	=9-	=9-	=9-	=9-	=9-	=9-
2.AA/	-li	1A	ter-	.	.	1.c	et
.	.	.	.	4e\	.	.	.
4BB/	et	.	.	4d\	.	.	.
*custos:FF	*	*	*	*	*	*	*
0C	ter-	1G,<	-rae.	2e\	.	.	.
.	.	.	.	2e\	-li	2c/	ter-
!LO:LB:g=original	!	!	!	!	!	!	!
=10-	=10-	=10-	=10-	=10-	=10-	=10-	=10-
.	.	1E	Vi-	1c	et	2G/	-rae,
*	*	*	*	*	*	*custos:a	*
.	.	.	.	.	.	2g\	Vi-
!	!	!	!	!	!	!LO:PB:g=original	!
1FF,<	-rae	1F	-ſi-	1.c	ter-	2a\	-ſi-
.	.	.	.	.	.	1f	-bi-
=11-	=11-	=11-	=11-	=11-	=11-	=11-	=11-
1.C	Vi-	1G	-bi-	.	.	.	.
.	.	.	.	2c,<\	-rae	4e\	.
.	.	.	.	.	.	4d\	.
.	.	1G	-li-	2.c\	Vi-	2e\	.
2C/	-ſi-	.	.	.	.	2e\	-li-
.	.	.	.	4c\	-ſi-	.	.
=12-	=12-	=12-	=12-	=12-	=12-	=12-	=12-
1C	-bi-	1G	-um	2c\	-bi-	2e\	-um
.	.	.	.	2e\	-li-	4c\	o-
.	.	.	.	.	.	4d\	.
2C/	-li-	1G	o-	1c	-um	4e\	.
.	.	.	.	.	.	4f\	.
2C/	-um	.	.	.	.	4g\	.
.	.	.	.	.	.	4e\	.
=13-	=13-	=13-	=13-	=13-	=13-	=13-	=13-
1D	o-	1F	-mni-	1.A	o-	4f\	.
.	.	.	.	.	.	4e\	.
.	.	.	.	.	.	1d	.
*	*	*custos:D	*	*	*	*	*
1AA	-mni-	1E	-um	.	.	.	.
!	!	!	!	!	!	!LO:TX:b:t=P:problem=# below	!
.	.	.	.	2A/	-mni-	2c#X/	-mni-
!	!	!LO:LB:g=original	!	!	!	!	!
=14-	=14-	=14-	=14-	=14-	=14-	=14-	=14-
*	*	*lig	*	*	*	*	*
2D/	-um,	1D	et	1A	-um,	1d	-um
1F\	et	.	.	.	.	.	.
.	.	1A	.	1c	et	2r	.
2F\	in-	.	.	.	.	1f	et
*	*	*Xlig	*	*	*	*	*
=15-	=15-	=15-	=15-	=15-	=15-	=15-	=15-
2F\	-ui-	1A	in-	2c\	in-	.	.
2F\	-ſi-	.	.	2c\	-ui-	2f\	in-
1.D	-bi-	1A	-ui-	1d	-ſi-	2f\	-ui-
.	.	.	.	.	.	2f\	-ſi-
=16-	=16-	=16-	=16-	=16-	=16-	=16-	=16-
.	.	1F	-ſi-	2.A/	-bi-	4d\	-bi-
.	.	.	.	.	.	4e\	.
2D/	-li-	.	.	.	.	1f	.
.	.	.	.	4B\	-li-	.	.
*	*	*lig	*	*	*	*	*
1C	-um	1G	-bi-	1c	-um	.	.
.	.	.	.	.	.	2e\	-li-
=17-	=17-	=17-	=17-	=17-	=17-	=17-	=17-
*	*ij	*	*	*	*ij	*	*
2F\	et	1A	.	2c\	et	1f,<	-um.
2D/	in-	.	.	2d\	in-	.	.
*	*	*Xlig	*	*	*	*	*
2E\	-ui-	1G	-li-	2B\	-ui-	1e	Et
2C/	-ſi-	.	.	2c\	-ſi-	.	.
=18-	=18-	=18-	=18-	=18-	=18-	=18-	=18-
2G\	-bi-	1G,<	-um.	2.B\	-bi-	1d	in
2GG/	-li-	.	.	.	.	.	.
.	.	.	.	4B\	-li-	.	.
*	*	*	*	*	*	*lig	*
1C,<	-um	1E	Et	1c	-um	1e	V-
*	*Xij	*	*	*	*Xij	*	*
=19-	=19-	=19-	=19-	=19-	=19-	=19-	=19-
1D	Et	1F	in	1A	Et	1d	.
*	*	*	*	*	*	*Xlig	*
2BB/	in	1G	V-	2G/	in	2d\	-num
1C	V-	.	.	1c	V-	1e	Do-
=20-	=20-	=20-	=20-	=20-	=20-	=20-	=20-
.	.	1G	-num	.	.	.	.
*	*	*	*	*custos:c	*	*	*
2GG/	-num	.	.	2B\	-nu(m)	2d\	-mi-
!	!	!	!	!LO:PB:g=original	!	!	!
1C	Do-	1G	Do-	2.c\	Do-	1e	-nu(m)
.	.	.	.	4c\	-mi-	.	.
=21-	=21-	=21-	=21-	=21-	=21-	=21-	=21-
*custos:AA	*	*	*	*	*	*	*
1D	-mi-	1F	-mi-	0A	-nu(m)	2.d\	Do-
.	.	.	.	.	.	4d\	-mi-
*	*	*	*	*	*	*custos:d	*
!LO:PB:g=original	!	!	!	!	!	!	!
1AA	-num	1E	-nu(m)	.	.	1c#X	-nu(m)
!	!	!	!	!	!	!LO:LB:g=original	!
=22-	=22-	=22-	=22-	=22-	=22-	=22-	=22-
1.BB-X	Je-	1F	Je-	1D	Je-	1.d	Je-
.	.	1D	-ſum	2F/	-ſum	.	.
2BB-/	-ſum	.	.	2.F/	Chri-	2d\	-ſum
=23-	=23-	=23-	=23-	=23-	=23-	=23-	=23-
1GG	Chr(i)-	1G	Chri-	.	.	1B-X	Chri-
.	.	.	.	8E/L	.	.	.
.	.	.	.	8D/J	.	.	.
.	.	.	.	2E/	.	.	.
2FF/	-(st)um	1A	-ſtum	1F	-ſtum	2A/	-ſtum
2.F\	Fi-	.	.	.	.	2a\	Fi-
=24-	=24-	=24-	=24-	=24-	=24-	=24-	=24-
*	*	*lig	*	*	*	*	*
.	.	1A	Fi-	1f	Fi-	4a\	-li-
4F\	-li-	.	.	.	.	4a\	-um
2D/	-u(m)	.	.	.	.	1a	De-
1G	De-	1B-X	.	2d\	-li-	.	.
.	.	.	.	2e\	-um	2g\	-i
*	*	*Xlig	*	*	*	*	*
=25-	=25-	=25-	=25-	=25-	=25-	=25-	=25-
2D/	-i	1A	-li-	1f	De-	1.a	V-
1F	V-	.	.	.	.	.	.
.	.	1A,<	-um	2c\	-i	.	.
2F\	-ni-	.	.	2.c\	Fi-	2a\	-ni-
=26-	=26-	=26-	=26-	=26-	=26-	=26-	=26-
1F	-ge-	1A	De-	.	.	2f\	.
.	.	.	.	4c\	-li-	.	.
.	.	.	.	2c\	-um	1f	-ge-
0C	-ni-	1G,<	-i	0c	De-	.	.
.	.	.	.	.	.	4e\	.
.	.	.	.	.	.	4d\	.
=27-	=27-	=27-	=27-	=27-	=27-	=27-	=27-
.	.	1G	V-	.	.	1e	-ni-
*	*	*custos:A	*	*	*	*	*
2FF/	-tum	1F	-ni-	1A	-i	2f\	-tum
1F\	V-	.	.	.	.	1a	V-
!	!	!LO:LB:g=original	!	!	!	!	!
=28-	=28-	=28-	=28-	=28-	=28-	=28-	=28-
.	.	1A	-ge-	2c\	V-	.	.
2D/	-ni-	.	.	2d\	-ni-	2f\	-ni-
2D/	-ge-	1F	-ni-	2.A/	-ge-	4d\	-ge-
.	.	.	.	.	.	4e\	.
2D/	-ni-	.	.	.	.	2.f\	.
.	.	.	.	4B\	.	.	.
=29-	=29-	=29-	=29-	=29-	=29-	=29-	=29-
1.C,<	-tum,	1G,<	-tum	1c	.	.	.
.	.	.	.	.	.	8e\L	.
.	.	.	.	.	.	8d\J	.
.	.	.	.	.	.	2e\	-ni-
.	.	1E	et	2G/	-ni-	2cny/	-tum
2C/	et	.	.	2c\	-tum	2e\	et
=30-	=30-	=30-	=30-	=30-	=30-	=30-	=30-
1D	ex	1F	ex	2.A/	et	2d\	ex
.	.	.	.	.	.	2.f\	Pa-
.	.	.	.	4B\	ex	.	.
1.C	Pa-	1G	Pa-	1.c	Pa-	.	.
.	.	.	.	.	.	8e\L	.
.	.	.	.	.	.	8d\J	.
.	.	.	.	.	.	2e\	.
=31-	=31-	=31-	=31-	=31-	=31-	=31-	=31-
.	.	1E	-tre	.	.	2g\	.
2C/	-tre	.	.	2c\	-tre	2g\	-tre
*	*	*	*	*custos:c	*	*	*
1C	na-	1G	na-	1c	na-	1e	na-
!	!	!	!	!LO:LB:g=original	!	!	!
=32-	=32-	=32-	=32-	=32-	=32-	=32-	=32-
2FF/	-tu(m)	1A,<	-tu(m)	1c	-tum	1f	-tu(m)
*	*ij	*	*	*	*	*	*
1F	et	.	.	.	.	.	.
*	*	*lig	*	*	*	*	*
.	.	1A	an-	2c\	et	2a\	et
*	*	*	*	*	*	*custos:f	*
2F\	ex	.	.	2c\	ex	2a\	ex
!	!	!	!	!	!	!LO:LB:g=original	!
=33-	=33-	=33-	=33-	=33-	=33-	=33-	=33-
2D/	Pa-	1B-X	.	2d\	Pa-	2f\	Pa-
2E\	-tre	.	.	2G/	-tre	2g\	-tre
*	*	*Xlig	*	*	*	*	*
*custos:c	*	*	*	*	*	*	*
0F	na-	1A	-te	0c	na-	2.a\	na-
.	.	.	.	.	.	4g\	.
!LO:LB:g=original	!	!	!	!	!	!	!
=34-	=34-	=34-	=34-	=34-	=34-	=34-	=34-
.	.	1A	o-	.	.	4f\	.
.	.	.	.	.	.	4e\	.
.	.	.	.	.	.	2.f\	.
1C	-tu(m)	1G	-mni-	1c	-tu(m)	.	.
*	*Xij	*	*	*	*	*	*
.	.	.	.	.	.	8e\L	.
.	.	.	.	.	.	8d\J	.
.	.	.	.	.	.	2e\	.
=35-	=35-	=35-	=35-	=35-	=35-	=35-	=35-
2r	.	1F,<	-a	1A	an-	2f\	-tum
1F\	an-	.	.	.	.	2a\	an-
*	*	*lig	*	*	*	*	*
.	.	1G	Sae-	2B\	-te	1g	-te
2E\	-te	.	.	2.c\	o-	.	.
=36-	=36-	=36-	=36-	=36-	=36-	=36-	=36-
2.F\	o-	1A	.	.	.	2.f\	o-
.	.	.	.	4c\	-mni-	.	.
.	.	.	.	2c\	-a	.	.
4F\	-mni-	.	.	.	.	4f\	-mni-
*	*	*Xlig	*	*	*	*	*
1C	-a	1G	-cu-	1.c	Sae-	1e	-a
=37-	=37-	=37-	=37-	=37-	=37-	=37-	=37-
1G	Sae-	1G,<	-la	.	.	1.d	ſae-
.	.	.	.	4B\	.	.	.
.	.	.	.	4A\	.	.	.
1GG	-cu-	1G	De-	2B\	.	.	.
.	.	.	.	2B\	-cu-	2d\	-cu-
=38-	=38-	=38-	=38-	=38-	=38-	=38-	=38-
1C	-la	1G	-um	1c,<	-la	1e	-la
2r	.	1F	de	1A	De-	2.a\	De-
1F	De-	.	.	.	.	.	.
.	.	.	.	.	.	4a\	-um
=39-	=39-	=39-	=39-	=39-	=39-	=39-	=39-
.	.	1A	De-	2c\	-um	2f\	de
2F\	-um	.	.	2c\	de	1f	De-
1C	de	1G	-o,	1c	De-	.	.
.	.	.	.	.	.	4e\	.
.	.	.	.	.	.	4d\	.
=40-	=40-	=40-	=40-	=40-	=40-	=40-	=40-
1C	De-	1G	lu-	1c	-o	1e	.
*	*	*custos:G	*	*	*	*	*
2D/	-o	1F	-men	1A	Lu-	2f\	-o
1F	lu-	.	.	.	.	2a\	Lu-
!	!	!LO:LB:g=original	!	!	!	!	!
=41-	=41-	=41-	=41-	=41-	=41-	=41-	=41-
*	*	*lig	*	*	*	*	*
.	.	1G	de	2B\	-men	1g	-men
2E\	-men	.	.	1c\	de	.	.
1F	de	1A	.	.	.	2f\	de
.	.	.	.	1A	Lu-	2c/	Lu-
*	*	*Xlig	*	*	*	*	*
=42-	=42-	=42-	=42-	=42-	=42-	=42-	=42-
2.D/	lu-	1F	lu-	.	.	1d	-mi-
.	.	.	.	2B\	-mi-	.	.
4D/	-mi-	.	.	.	.	.	.
1C	-ne	1E	-mi-	1c	-ne	1F,<	-ne
=43-	=43-	=43-	=43-	=43-	=43-	=43-	=43-
2.FF/	De-	1F	-ne,	2f\	De-	1A	De-
.	.	.	.	1d	-um	.	.
4GG/	-u(m)	.	.	.	.	.	.
1AA	Ve-	1E	De-	.	.	2A/	-um.
*	*	*	*	*custos:d	*	*	*
!	!	!	!	!LO:TX:a:t=P:problem=# above	!	!	!
.	.	.	.	2c#X\	Ve-	2A/	Ve-
!	!	!	!	!LO:LB:g=original	!	!	!
=44-	=44-	=44-	=44-	=44-	=44-	=44-	=44-
2D/	-rum	1D	-um	2d\	-rum	2A/	-ru(m)
*	*	*	*	*	*	*custos:e	*
2D/	de	.	.	2A/	.	2f\	de
!	!	!	!	!	!	!LO:LB:g=original	!
2C/	De-	1G	Ve-	2cny\	de	2e\	De-
2BBny/	-o	.	.	2G/	De-	1d	-o
=45-	=45-	=45-	=45-	=45-	=45-	=45-	=45-
*custos:D	*	*	*	*	*	*	*
1AA	Ve-	1A	-rum	2F/	-o	.	.
!	!	!	!	!	!	!LO:TX:a:t=P:problem=# above	!
.	.	.	.	2E/	Ve-	2c#X/	Ve-
!LO:LB:g=original	!	!	!	!	!	!	!
2D/	-ro	1A	de	2D/	-ro	2d\	-ro
2D/	de	.	.	1f	de	1a	de
=46-	=46-	=46-	=46-	=46-	=46-	=46-	=46-
2.F\	De-	1A	De-	.	.	.	.
.	.	.	.	1c	De-	2.f\	De-
4G\	.	.	.	.	.	.	.
2A\	-o	1F	-o	.	.	.	.
.	.	.	.	.	.	4g\	-o
2A\	Ve-	.	.	2c\	-o	1a	Ve-
=47-	=47-	=47-	=47-	=47-	=47-	=47-	=47-
1F	.	1A	Ve-	0c	Ve-	.	.
.	.	.	.	.	.	2.f\	.
0C	-ro	1G,<	-ro,	.	.	.	.
.	.	.	.	.	.	8e\L	.
.	.	.	.	.	.	8d\J	.
.	.	.	.	.	.	4e\	.
.	.	.	.	.	.	4f\	.
=48-	=48-	=48-	=48-	=48-	=48-	=48-	=48-
.	.	1E	ge-	1c,<	-ro	1g	.
2.D/	ge-	1F	-ni-	2.A/	ge-	2f\	-ro
.	.	.	.	.	.	2.d\	ge-
4D/	-ni-	.	.	4A/	-ni-	.	.
=49-	=49-	=49-	=49-	=49-	=49-	=49-	=49-
2BB/	-tum	1G	-tum	4B\	-tum	.	.
.	.	.	.	4G/	non	4d\	-ni-
2C/	no(n)	.	.	2.c\	fa-	2e\	-tum
1GG	fac-	1G	non	.	.	2d\	no(n)
.	.	.	.	8B\L	.	.	.
.	.	.	.	8A\J	.	.	.
.	.	.	.	2B\	.	2d\	fac-
=50-	=50-	=50-	=50-	=50-	=50-	=50-	=50-
1C	-tu(m)	1G	fa-	1c	.	1e	-tu(m)
2.D/	con-	1F,<	-ctu(m)	1A	-ctum	2.d\	con-
4D/	-ſub-	.	.	.	.	4d\	-ſub-
=51-	=51-	=51-	=51-	=51-	=51-	=51-	=51-
2AA/	-ſtan-	1E	con-	2r	.	2cny/	-stan-
2AA/	-ti-	.	.	2A/	con-	2c/	-ti-
2.FF/	-a-	1F	-ſub-	2A/	-ſub-	2c/	-a-
.	.	.	.	2A/	-ſtan-	1d	-le(m)
4GG/	-lem	.	.	.	.	.	.
=52-	=52-	=52-	=52-	=52-	=52-	=52-	=52-
*lig	*	*	*	*	*	*	*
1AA	Pa-	1E	-ſtan-	2A/	-ti-	.	.
.	.	.	.	2A/	-a-	2c/	Pa-
1D	.	1F	-ti-	4f\	.	2d\	-tri
.	.	.	.	4e\	.	.	.
.	.	.	.	1d	-lem	2.a\	Pa-
*Xlig	*	*	*	*	*	*	*
=53-	=53-	=53-	=53-	=53-	=53-	=53-	=53-
1AA	-tri	1E	-a-	.	.	.	.
.	.	.	.	.	.	4g\	.
!	!	!	!	!LO:TX:a:t=P:problem=# above	!	!	!
.	.	.	.	2c#X\	Pa-	2e\	.
*	*	*custos:G	*	*	*	*	*
2r	.	1D	-lem	1d,<	-tri,	2f,<\	-tri
2F\	per	.	.	.	.	1f	per
!	!	!LO:PB:g=original	!	!	!	!	!
=54-	=54-	=54-	=54-	=54-	=54-	=54-	=54-
1C	que(m)	1G	Pa-	2cny\	per	.	.
*	*	*	*	*custos:c	*	*	*
.	.	.	.	2c\	quem	2e\	que(m)
!	!	!	!	!LO:LB:g=original	!	!	!
2.F\	o-	1A,	-tri	2.c\	o-	2.a\	o-
*	*	*	*	*	*	*custos:f	*
4F\	-mni-	.	.	4c\	-mni-	4a\	-mni-
!	!	!	!	!	!	!LO:LB:g=original	!
=55-	=55-	=55-	=55-	=55-	=55-	=55-	=55-
*	*	*lig	*	*	*	*	*
2F\	-a	1A	per	2c\	-a	2f\	-a
2D/	fa-	.	.	2f\	fac-	1a	fac-
*custos:D	*	*	*	*	*	*	*
1G	-cta	1B-X	.	1d	-ta	.	.
.	.	.	.	.	.	1g	-ta
*	*	*Xlig	*	*	*	*	*
!LO:LB:g=original	!	!	!	!	!	!	!
=56-	=56-	=56-	=56-	=56-	=56-	=56-	=56-
1D	Sunt	1A	que(m)	1d	Sunt	.	.
!	!	!	!	!	!	!LO:TX:a:t=P:problem=# above	!
.	.	.	.	.	.	2f#X\	Sunt
2r	.	1A	o-	2r	.	2rf	.
1F	o-	.	.	2A/	o-	2c/	o-
=57-	=57-	=57-	=57-	=57-	=57-	=57-	=57-
.	.	1G	-mni-	2B\	-mni-	2d\	-mni-
2E\	-mni-	.	.	2c\	-a	2e\	-a
2D/	-a	1F	-a	2d\	fac-	4fny\	fa-
.	.	.	.	.	.	4d\	.
2D/	fac-	.	.	2A/	-ta	1f	.
=58-	=58-	=58-	=58-	=58-	=58-	=58-	=58-
*	*	*lig	*	*	*	*	*
1C	-ta	1G	fa-	1c,<	Sunt.	.	.
.	.	.	.	.	.	2e\	-cta
1FF,<	Sunt	1A	.	1c	Qui	2f,<\	Sunt
.	.	.	.	.	.	1f	qui
*	*	*Xlig	*	*	*	*	*
=59-	=59-	=59-	=59-	=59-	=59-	=59-	=59-
1C	Qui	1G	-cta	1.c	prop-	.	.
.	.	.	.	.	.	4e\	.
.	.	.	.	.	.	4d\	.
1.C	prop-	1G,<	Sunt.	.	.	2.e\	prop-
.	.	.	.	2c\	-ter	.	.
.	.	.	.	.	.	4f\	.
=60-	=60-	=60-	=60-	=60-	=60-	=60-	=60-
.	.	1E	Qui	1c	nos	2g\	.
2C/	-(te)r	.	.	.	.	2g\	-ter
1D	nos	1F	prop-	2.A/	ho-	2f\	nos
.	.	.	.	.	.	1d	.
.	.	.	.	4A/	-mi-	.	.
=61-	=61-	=61-	=61-	=61-	=61-	=61-	=61-
2BB/	ho-	1G	-ter	2B\	-nes	.	.
2C/	-mi-	.	.	2e\	ho-	1c	ho-
1GG	-nes	1G	nos	1d	-mi-	.	.
.	.	.	.	.	.	2Bny/	-mi-
=62-	=62-	=62-	=62-	=62-	=62-	=62-	=62-
1C	ho-	1G	ho-	1e	-nes	1c	-nes
1D	-mi-	1F	-mi-	4f\	ho-	1.A	ho-
.	.	.	.	4e\	.	.	.
.	.	.	.	1d	.	.	.
=63-	=63-	=63-	=63-	=63-	=63-	=63-	=63-
1AA	-nes,	1E,<	-nes	.	.	.	.
!	!	!	!	!LO:TX:a:t=P:problem=# above	!	!	!
.	.	.	.	2c#X\	-mi-	2A/	-mi-
1D	et	1F	et	2d\	-nes	2A/	-nes
.	.	.	.	2A/	et	2a\	et
=64-	=64-	=64-	=64-	=64-	=64-	=64-	=64-
2F\	p(ro)p-	1D	prop-	2A/	p(ro)p-	2f\	prop-
2F\	-(te)r	.	.	2A/	-(te)r	2f\	-ter
*	*	*	*	*custos:c	*	*	*
1.C	no-	1E	-ter	1cny	no-	1g	no-
!	!	!	!	!LO:LB:g=original	!	!	!
=65-	=65-	=65-	=65-	=65-	=65-	=65-	=65-
.	.	1G	no-	2c\	-ſtram	2e\	-ſtra(m)
2GG/	-ſtram	.	.	2B\	Sa-	2d\	Sa-
1C	Sa-	1E	-ſtra(m)	1G	-lu-	0c	-lu-
=66-	=66-	=66-	=66-	=66-	=66-	=66-	=66-
1AA	-lu-	1F	Sa-	1A	-te(m)	.	.
*	*	*	*	*	*	*custos:g	*
2GG/	-te(m)	1G	-lu-	2d\	de-	1B	-te(m)
2G\	de-	.	.	2.B\	-ſcen-	.	.
!	!	!	!	!	!	!LO:LB:g=original	!
=67-	=67-	=67-	=67-	=67-	=67-	=67-	=67-
2E\	-ſcen-	1G,<	-tem	.	.	2g\	de-
.	.	.	.	4G/	-dit	.	.
*custos:C	*	*	*	*	*	*	*
2C/	-dit	.	.	2c\	de-	2.e\	-ſcen-
*	*	*custos:G	*	*	*	*	*
!LO:LB:g=original	!	!	!	!	!	!	!
1C	de-	1G	de-	1c	-ſcen-	.	.
.	.	.	.	.	.	4c/	.
.	.	.	.	.	.	2e\	-dit
!	!	!LO:LB:g=original	!	!	!	!	!
=68-	=68-	=68-	=68-	=68-	=68-	=68-	=68-
2.GG/	-ſcen-	1G	-ſcen-	2B\	-dit	2d\	de
.	.	.	.	2B\	de	2d\	cae-
4GG/	-dit	.	.	.	.	.	.
1C	de	1G	-dit	1c	Cae-	4e\	.
.	.	.	.	.	.	4f\	.
.	.	.	.	.	.	4g\	-lis
.	.	.	.	.	.	4e\	.
=69-	=69-	=69-	=69-	=69-	=69-	=69-	=69-
0D	cae-	1F	de	1A	-lis	4f\	de
.	.	.	.	.	.	4g\	.
.	.	.	.	.	.	4a\	.
.	.	.	.	.	.	4g\	.
!	!	!	!	!	!	!LO:TX:a:t=P:problem=# above	!
.	.	1A	cae-	2r	.	4f#X\	cae-
.	.	.	.	.	.	2g\	.
*	*	*	*	*	*ij	*	*
.	.	.	.	2d\	de-	.	.
!	!	!	!	!	!	!LO:TX:a:t=P:problem=# above	!
.	.	.	.	.	.	4f#X\	.
=70-	=70-	=70-	=70-	=70-	=70-	=70-	=70-
2GG/	-lis	[0Gl;	-lis.	2.B\	-ſcen-	2g,<\	-lis
*	*ij	*	*	*	*	*	*ij
2GG/	de	.	.	.	.	2d\	de
.	.	.	.	4B,\	-dit	.	.
1C	cae-	.	.	2c\	de	1e	cae-
.	.	.	.	4.c\	Cae-	.	.
.	.	.	.	16B\LL	.	.	.
.	.	.	.	16A\JJ	.	.	.
=71-	=71-	=71-	=71-	=71-	=71-	=71-	=71-
1GGl;	-lis	1G]	.	1Bl;	-lis	1dl,<;<	-lis
*	*Xij	*	*	*	*Xij	*	*Xij
!LO:TX:a:t=P:problem=oznaczenie menzuralne C|	!	!	!	!	!	!	!
1AA	ET	1E	ET	1A	ET	2c/	ET
.	.	.	.	.	.	2c/	in-
=72-	=72-	=72-	=72-	=72-	=72-	=72-	=72-
2D/	in-	1F	in-	2A/	in-	2d\	-car-
2D/	-car-	.	.	2A/	-car-	1fny	-na-
1.C	-na-	1G	-car-	1c	-na-	.	.
.	.	.	.	.	.	4e\	.
.	.	.	.	.	.	4d\	.
=73-	=73-	=73-	=73-	=73-	=73-	=73-	=73-
.	.	1G	-na-	1c	-tus	2e\	.
2C/	-tus	.	.	.	.	2e\	-tus
1FF	est	1F	-tus	1A	eſt	2f\	est
.	.	.	.	.	.	2c/	de
=74-	=74-	=74-	=74-	=74-	=74-	=74-	=74-
!	!	!	!	!	!	!LO:TX:b:t=P:problem=# below	!
2AA/	de	1E	est	1A	de	1c#X	Spi-
1AA/	ſpi-	.	.	.	.	.	.
!	!	!	!	!	!	!LO:TX:b:t=P:problem=# below	!
.	.	1E	de	2.A/	Spi-	2c#X/	-ri-
2AA/	-ri-	.	.	.	.	2c#/	-tu
.	.	.	.	4A/	-ri-	.	.
=75-	=75-	=75-	=75-	=75-	=75-	=75-	=75-
1D	-tu	1F	Spi-	2A/	-tu	1d	San-
*	*	*	*	*custos:A	*	*	*
.	.	.	.	2A/	San-	.	.
*	*	*	*	*	*	*custos:A	*
!	!	!	!	!LO:LB:g=original	!	!	!
1AA	San-	1E	-ri-	2A/	-cto	1c#X	-cto
.	.	.	.	2e\	de	.	.
!	!	!	!	!	!	!LO:LB:g=original	!
=76-	=76-	=76-	=76-	=76-	=76-	=76-	=76-
2D/	-cto	1D	-tu	2.f\	Spi-	2r	.
2D/	de	.	.	.	.	2A/	de
.	.	.	.	4f\	-ri-	.	.
2.C/	Spi-	1G	San-	2e\	-tu	2.cny/	Spi-
.	.	.	.	2e\	de	.	.
4C/	-ri-	.	.	.	.	4c/	-ri-
=77-	=77-	=77-	=77-	=77-	=77-	=77-	=77-
2AA/	-tu	1A	-cto	2.c\	Spi-	2e\	-tu
*	*	*	*	*	*	*	*ij
2F\	de	.	.	.	.	2f\	Spi-
.	.	.	.	4c\	-ri-	.	.
*	*	*lig	*	*	*	*	*
2.F\	Spi-	1A	ex	2c\	-tu	4f\	-ri-
.	.	.	.	.	.	4g\	-tu
*	*	*	*	*	*	*	*Xij
.	.	.	.	2c\	San-	1a	San-
*custos:D	*	*	*	*	*	*	*
4F\	-ri-	.	.	.	.	.	.
!LO:LB:g=original	!	!	!	!	!	!	!
=78-	=78-	=78-	=78-	=78-	=78-	=78-	=78-
2D\	-tu	1B-X	.	2f\	.	.	.
2E\	San-	.	.	4e\	.	2g\	.
.	.	.	.	4d\	.	.	.
*	*	*Xlig	*	*	*	*	*
1F	-cto	1A	Ma-	1c	.	1a	-cto
=79-	=79-	=79-	=79-	=79-	=79-	=79-	=79-
1.D	ex	1A	-ri-	1d	-cto	1f	ex
.	.	1F	-a	1A	ex	2f\	Ma-
2D/	Ma-	.	.	.	.	2.f\	-ri-
=80-	=80-	=80-	=80-	=80-	=80-	=80-	=80-
*	*	*lig	*	*	*	*	*
1C	-ri-	1G	Vir-	2c\	Ma-	.	.
.	.	.	.	.	.	8e\L	.
.	.	.	.	.	.	8d\J	.
.	.	.	.	1c	-ri-	2e\	.
2FF/	-a	1A	.	.	.	1c	-a
1F	Vir-	.	.	2F/	-a	.	.
*	*	*Xlig	*	*	*	*	*
=81-	=81-	=81-	=81-	=81-	=81-	=81-	=81-
.	.	1G	-gi-	1C	Vir-	1.c	Vir-
4E\	.	.	.	.	.	.	.
4D\	.	.	.	.	.	.	.
*	*	*custos:A	*	*	*	*	*
2E\	.	1G	-ne	1C	-gi-	.	.
2E\	-gi-	.	.	.	.	2c/	-gi-
!	!	!LO:LB:g=original	!	!	!	!	!
=82-	=82-	=82-	=82-	=82-	=82-	=82-	=82-
1F	-ne	1A	Et	2F/	-ne	1c	-ne
.	.	.	.	2c\	et	.	.
1D	et	1A	Ho-	1d	Ho-	1f	et
=83-	=83-	=83-	=83-	=83-	=83-	=83-	=83-
1D	Ho-	1F	-mo	1A	-mo	2f\	Ho-
.	.	.	.	.	.	2d\	-mo
*	*	*lig	*	*	*	*	*
2C/	-mo	1G	Fa-	2c\	fa-	4e\	fa-
.	.	.	.	.	.	4f\	.
2E\	fa-	.	.	4B\	.	1g	.
.	.	.	.	4c\	.	.	.
=84-	=84-	=84-	=84-	=84-	=84-	=84-	=84-
1D	-ctus	1A	.	2d\	.	.	.
!	!	!	!	!	!	!LO:TX:a:t=P:problem=# above	!
.	.	.	.	2d\	-ct(us)	2f#X\	-ctus
*	*	*Xlig	*	*	*	*	*
2GG,</	e(st).	1G	-ctus	2B,<\	eſt.	2g,<\	eſt.
1C/	Cru-	.	.	1c	Cru-	1e\	Cru-
=85-	=85-	=85-	=85-	=85-	=85-	=85-	=85-
.	.	1G,<	est.	.	.	.	.
*	*	*	*	*custos:G	*	*	*
2BB/	-ci-	.	.	2G/	-ci-	2d\	-ci-
!	!	!	!	!LO:PB:g=original	!	!	!
1C	-fi-	1E	Cru-	1G	-fi-	1.c	-fi-
=86-	=86-	=86-	=86-	=86-	=86-	=86-	=86-
1AA	-xus	1F	-ci-	1A	-xus	.	.
.	.	.	.	.	.	2c/	-xus
1GG	e-	1G	-fi-	2.d\	Cru-	2.B-X/	Cru-
*	*	*	*	*	*	*custos:A	*
.	.	.	.	4d\	-ci-	4B-/	-ci-
!	!	!	!	!	!	!LO:LB:g=original	!
=87-	=87-	=87-	=87-	=87-	=87-	=87-	=87-
1D	-ti-	1F	-xus	2d\	-fi-	2A/	-fi-
.	.	.	.	2d\	-xus	2A/	-xus
1AA	-am	1E	e-	2c\	e-	2.A/	e-
.	.	.	.	2c\	-ti-	.	.
.	.	.	.	.	.	4A/	-ti-
=88-	=88-	=88-	=88-	=88-	=88-	=88-	=88-
(2.FF/	pro	1F	-ti-	4c\	-am	2A/	-am
.	.	.	.	4A\	pro	.	.
.	.	.	.	1d	no-	2A/	pro
4GG/	.	.	.	.	.	.	.
1AA)	no-	1E	-am	.	.	1A	no-
!	!	!	!	!LO:TX:a:t=P:problem=# above	!	!	!
.	.	.	.	2c#X\	.	.	.
=89-	=89-	=89-	=89-	=89-	=89-	=89-	=89-
2D,</	-bis	1D	pro	2d\	-bis	2A/	-bis
2D/	ſub	.	.	2d\	Sub	2fny\	Sub
2.E\	Pon-	1G	no-	1B	Pon-	2.e\	Pon-
*custos:F	*	*	*	*	*	*	*
4E\	-ti-	.	.	.	.	4e\	-ti-
!LO:PB:g=original	!	!	!	!	!	!	!
=90-	=90-	=90-	=90-	=90-	=90-	=90-	=90-
2F\	-o	1A	-bis	2A/	-ti-	2c/	-o
1D	Pi-	.	.	1d	-o	1f\	Pi-
.	.	1A	Sub	.	.	.	.
2D/	-la-	.	.	1d	Pi-	2f\	-la-
=91-	=91-	=91-	=91-	=91-	=91-	=91-	=91-
1AA	-to	0A	Pon-	.	.	1e	-to
!	!	!	!	!LO:TX:a:t=P:problem=# above	!	!	!
.	.	.	.	2c#X\	-la-	.	.
2.D/	Pi-	.	.	1d	-to	2.f\	Pi-
4C/	.	.	.	.	.	8e\L	.
.	.	.	.	.	.	8f\J	.
=92-	=92-	=92-	=92-	=92-	=92-	=92-	=92-
2BB/	.	1G	-ti-	2rd	.	2g\	.
2C/	.	.	.	2e\	Pi-	1c\	.
1GG	-la-	1G,<	-o	1d	-la-	.	.
.	.	.	.	.	.	2Bny/	-la-
=93-	=93-	=93-	=93-	=93-	=93-	=93-	=93-
1C	-to	1G	Pi-	2e\	-to	1c	-to
.	.	.	.	2e\	Pi-	.	.
2rC	.	1G	-la-	2d\	-la-	2r	.
1C	Paſ-	.	.	2cny\	-to	1e	Paſ-
=94-	=94-	=94-	=94-	=94-	=94-	=94-	=94-
.	.	1G,<	-to	2r	.	.	.
2C/	-sus	.	.	1c	Paſ-	2e\	-sus
1F	et	1A	Paſ-	.	.	2f\	et
.	.	.	.	2c\	-sus	1f	Se-
=95-	=95-	=95-	=95-	=95-	=95-	=95-	=95-
*	*	*custos:G	*	*	*	*	*
1C	Se-	1G	-sus	2c\	et	.	.
.	.	.	.	2c\	Se-	4e\	.
.	.	.	.	.	.	4d\	.
!	!	!LO:LB:g=original	!	!	!	!	!
1C	-pul-	1G	et	2.c\	-pul-	1e	-pul-
.	.	.	.	4c\	-t(us)	.	.
=96-	=96-	=96-	=96-	=96-	=96-	=96-	=96-
*	*	*	*	*custos:e	*	*	*
1D	-tus	1F	Se-	1A	e(st)	1d	-tus
!	!	!	!	!LO:LB:g=original	!	!	!
1AA	est	1A	-pul-	2r	.	1c#X	est
.	.	.	.	2e\	et	.	.
=97-	=97-	=97-	=97-	=97-	=97-	=97-	=97-
2C/	et	1G	-tus	2e\	Se-	2r	.
2C/	Se-	.	.	2e\	-pul-	2c/	et
2.C/	-pul-	0G,<	est.	1e	-tus	2c/	ſe-
.	.	.	.	.	.	2.c/	-pul-
4C/	-t(us)	.	.	.	.	.	.
=98-	=98-	=98-	=98-	=98-	=98-	=98-	=98-
1GG	e(st)	.	.	1d	est.	.	.
.	.	.	.	.	.	8B/L	.
.	.	.	.	.	.	8A/J	.
*	*	*	*	*	*	*custos:c	*
.	.	.	.	.	.	2B/	.
!	!	!	!	!	!	!LO:LB:g=original	!
1C	Et	1E	Et	2r	.	1c	-tus
.	.	.	.	2e\	Et	.	.
=99-	=99-	=99-	=99-	=99-	=99-	=99-	=99-
2D/	re-	1F	re-	4d\	re-	1A,	est.
.	.	.	.	4e\	-ſur-	.	.
2D/	-ſur-	.	.	1f	-re-	.	.
0C	-re-	1G	-ſur-	.	.	1c	Et
.	.	.	.	4e\	.	.	.
.	.	.	.	4d\	.	.	.
=100-	=100-	=100-	=100-	=100-	=100-	=100-	=100-
.	.	1G	-re-	1e	.	2c/	re-
.	.	.	.	.	.	2c/	-ſur-
1FF	-xit	1F	-xit	2f\	-xit	1A	-re-
.	.	.	.	1c	ter-	.	.
=101-	=101-	=101-	=101-	=101-	=101-	=101-	=101-
*custos:BB-	*	*	*	*	*	*	*
1C	ter-	1E	ter-	.	.	1G	-xit
.	.	.	.	2c\	-ti-	.	.
!LO:LB:g=original	!	!	!	!	!	!	!
2BB-X/	-ti-	1F	-ti-	2.d\	-a	2rA	.
2BB-/	-a	.	.	.	.	2d\	ter-
.	.	.	.	4c\	.	.	.
=102-	=102-	=102-	=102-	=102-	=102-	=102-	=102-
2.BB-/	di-	1D	-a	0B-X	di-	4d\	-ti-
.	.	.	.	.	.	4e\	-a
.	.	.	.	.	.	2.f\	di-
4AA/	.	.	.	.	.	.	.
1GG	.	1G	di-	.	.	.	.
.	.	.	.	.	.	8e\L	.
.	.	.	.	.	.	8d\J	.
.	.	.	.	.	.	2e\	.
=103-	=103-	=103-	=103-	=103-	=103-	=103-	=103-
2FF/	-e	1A	-e	2A,</	-e	2f\	-e
2F\	Se-	.	.	2c\	Se-	2a\	Se-
2D/	-cun-	1A	Se-	2d\	-cun-	2f\	-cun-
2F\	-dum	.	.	2c\	-dum	2a\	-dum
=104-	=104-	=104-	=104-	=104-	=104-	=104-	=104-
2.F\	Scri-	1A	-cun-	2.c\	Scri-	2.f\	Scri-
4F\	-ptu-	.	.	4c\	-ptu-	4f\	-ptu-
2D/	-ras	1A	-du(m)	2d\	-ras	2f\	-ras
*	*ij	*	*	*	*ij	*	*ij
2D/	Se-	.	.	2d\	Se-	2f\	Se-
=105-	=105-	=105-	=105-	=105-	=105-	=105-	=105-
2D/	-cun-	1F	Scri-	2A/	-cun-	2a\	-cun-
2D/	-dum	.	.	2d\	-dum	2f\	-dum
2.F\	Scri-	1A	-ptu-	1.c	ſcri-	2.f\	Scri-
4F\	-ptu-	.	.	.	.	4f\	-ptu-
=106-	=106-	=106-	=106-	=106-	=106-	=106-	=106-
2C/	-ras	0G,<	-ras.	.	.	1e	-ras
*	*Xij	*	*	*	*	*	*Xij
2C/	et	.	.	2c\	-ptu-	.	.
2E\	a-	.	.	1Bny	-ras	2r	.
*	*	*	*	*	*Xij	*	*
2G\	-ſcen-	.	.	.	.	2d\	Et
=107-	=107-	=107-	=107-	=107-	=107-	=107-	=107-
2C/	-dit	1E	Et	2rd	.	2e\	a-
*	*	*	*	*custos:A	*	*	*
2C/	in	.	.	2e\	et	2g\	-ſcen-
!	!	!	!	!LO:LB:g=original	!	!	!
1D	cae-	1F	a-	2.A/	a-	4f\	-dit
.	.	.	.	.	.	4d\	in
.	.	.	.	.	.	2.f\	cae-
.	.	.	.	4B\	.	.	.
=108-	=108-	=108-	=108-	=108-	=108-	=108-	=108-
1C	-lum	1G	-ſcen-	1c	-ſcen-	.	.
!	!	!	!	!	!	!LO:N:vis=16	!
.	.	.	.	.	.	8e\L	.
!	!	!	!	!	!	!LO:N:vis=16	!
.	.	.	.	.	.	8d\J	.
*	*	*	*	*	*	*custos:c	*
.	.	.	.	.	.	2e\	.
!	!	!	!	!	!	!LO:LB:g=original	!
2r	.	1F	-dit	1A	-dit	0c	-lum
*	*ij	*	*	*	*	*	*
2FF/	et	.	.	.	.	.	.
=109-	=109-	=109-	=109-	=109-	=109-	=109-	=109-
*	*	*custos:G	*	*	*	*	*
2AA/	a-	1E	in	2r	.	.	.
*	*	*	*	*	*ij	*	*
2C/	-scen-	.	.	2G/	et	.	.
!	!	!LO:LB:g=original	!	!	!	!	!
2GG/	-dit	1G	cae-	2B\	a-	2r	.
2GG/	in	.	.	2.d\	.	2g\	Se-
=110-	=110-	=110-	=110-	=110-	=110-	=110-	=110-
2D/	cae-	1A	-lum	.	.	2f\	-det
.	.	.	.	4d\	-ſcen-	.	.
*	*	*	*	*	*Xij	*	*
*custos:F	*	*	*	*	*	*	*
2AA/	-lum	.	.	2c\	-dit	2e\	ad
*	*Xij	*lig	*	*	*	*	*
!LO:LB:g=original	!	!	!	!	!	!	!
2.F\	Se-	1A	Se-	2c\	in	4f\	.
.	.	.	.	.	.	4g\	.
.	.	.	.	2c\	cae-	1a	dex-
4F\	-det	.	.	.	.	.	.
=111-	=111-	=111-	=111-	=111-	=111-	=111-	=111-
2D/	ad	1B-X	.	2f\	-lum	.	.
2E\	dex-	.	.	4e\	Se-	2g\	.
.	.	.	.	4d\	.	.	.
*	*	*Xlig	*	*	*	*lig	*
2F\	-te-	1A	-det	4c\	.	1f	-te-
.	.	.	.	4A/	.	.	.
2D/	-ra(m)	.	.	1d	.	.	.
=112-	=112-	=112-	=112-	=112-	=112-	=112-	=112-
1AA	Pa-	1A	ad	.	.	1e	.
!	!	!	!	!LO:TX:a:t=P:problem=# above	!	!	!
.	.	.	.	2c#X\	.	.	.
*	*	*	*	*	*	*Xlig	*
2D/	-tris	1A	dex-	2d\	-det	1d	-ram
2D/	ad	.	.	2f\	ad	.	.
=113-	=113-	=113-	=113-	=113-	=113-	=113-	=113-
2.D/	dex-	1F	-te-	1f	dex-	2.A/	Pa-
4D/	-te-	.	.	.	.	4B/	.
1AA	-ra(m)	1A	-ram	1e	-te-	1c	-tris
=114-	=114-	=114-	=114-	=114-	=114-	=114-	=114-
1C	Pa-	1G	Pa-	2e\	-ra(m)	2r	.
.	.	.	.	1cny	Pa-	2c/	Et
1GG,<	-tris.	1G,<	-tris.	.	.	1d	i-
.	.	.	.	2B\	-tris.	.	.
=115-	=115-	=115-	=115-	=115-	=115-	=115-	=115-
1C	Et	1E	Et	2G/	Et	2e\	-te-
.	.	.	.	1A	i-	2c/	-ru(m)
1D	i-	1F	i-	.	.	1f	Ven-
.	.	.	.	1B	-te-	.	.
=116-	=116-	=116-	=116-	=116-	=116-	=116-	=116-
1E	-te-	1G	-te-	.	.	2e\	-tu-
.	.	.	.	1c	-rum	2e\	-rus
2C/	-rum	1G	-rum	.	.	2e\	e(st)
1C	Ven-	.	.	1e	Ven-	1g	Ven-
=117-	=117-	=117-	=117-	=117-	=117-	=117-	=117-
.	.	1G	Ven-	.	.	.	.
2C/	-tu-	.	.	1c	-tu-	2e\	-tu-
0GG	-rus	1G	-tu-	.	.	0d	-r(us)
.	.	.	.	4B\	.	.	.
*	*	*	*	*custos:B	*	*	*
.	.	.	.	4A\	.	.	.
!	!	!	!	!LO:LB:g=original	!	!	!
=118-	=118-	=118-	=118-	=118-	=118-	=118-	=118-
.	.	1G	-rus	2B\	.	.	.
.	.	.	.	2B\	-rus	.	.
2C/	e(st)	1G,<	est	1c	est	1e	est
2C/	cu(m)	.	.	.	.	.	.
=119-	=119-	=119-	=119-	=119-	=119-	=119-	=119-
2.C/	glo-	1G,<	cu(m)	2e\	cum	2rf	.
.	.	.	.	2.c\	glo-	2e\	cu(m)
4C/	-ri-	.	.	.	.	.	.
2C/	-a	1G	glo-	.	.	2.e\	glo-
.	.	.	.	4c\	-ri-	.	.
2C/	cu(m)	.	.	2c\	-a	.	.
.	.	.	.	.	.	4e\	-ri-
=120-	=120-	=120-	=120-	=120-	=120-	=120-	=120-
2.FF/	glo-	1F	-ri-	1A	cu(m)	2f\	-a
*	*	*	*	*	*	*	*ij
.	.	.	.	.	.	2c/	cum
4FF/	-ri-	.	.	.	.	.	.
1C	-a	1E,<	-a	2.G/	glo-	2.c/	glo-
*	*	*	*	*	*	*custos:c	*
.	.	.	.	4G/	-ri-	4c/	-ri-
!	!	!	!	!	!	!LO:LB:g=original	!
=121-	=121-	=121-	=121-	=121-	=121-	=121-	=121-
2FF/	iu-	1F	iu-	2A/	-a	2c/	-a
*	*	*	*	*	*	*	*Xij
2FF/	-di-	.	.	2A/	iu-	2c/	iu-
2.BB-X/	-ca-	1D	-di-	1B-X	-di-	4d\	.
.	.	.	.	.	.	4e\	.
.	.	.	.	.	.	1f	-di-
*custos:GG	*	*	*	*	*	*	*
4AA/	.	.	.	.	.	.	.
!LO:LB:g=original	!	!	!	!	!	!	!
=122-	=122-	=122-	=122-	=122-	=122-	=122-	=122-
1GG	.	1G	-ca-	1B-	-ca-	.	.
.	.	.	.	.	.	2e\	-ca-
*	*	*custos:A	*	*	*	*	*
1FF	-re	1A	-re	2A/	-re	1f	-re
.	.	.	.	2.c\	Vi-	.	.
!	!	!LO:LB:g=original	!	!	!	!	!
=123-	=123-	=123-	=123-	=123-	=123-	=123-	=123-
1.F	Vi-	1A	Vi-	.	.	1a	Vi-
.	.	.	.	4c\	-uos	.	.
.	.	.	.	2c\	et	.	.
.	.	1A	-uos	2d\	mor-	1f	-uos
2D/	-uos	.	.	2d\	-tu-	.	.
=124-	=124-	=124-	=124-	=124-	=124-	=124-	=124-
1D	et	1F	et	2A/	-os	4d\	et
.	.	.	.	.	.	4e\	.
.	.	.	.	2d\	et	2f\	.
*	*	*lig	*	*	*	*	*
1E	mor-	1G	mor-	2c\	.	4e\	.
.	.	.	.	.	.	4f\	.
.	.	.	.	2Bny\	mor-	1g	mor-
=125-	=125-	=125-	=125-	=125-	=125-	=125-	=125-
1D	-tu-	1A	.	1d	-tu-	.	.
!	!	!	!	!	!	!LO:TX:a:t=P:problem=# above	!
.	.	.	.	.	.	2f#X\	-tu-
*	*	*Xlig	*	*	*	*	*
2GG,</	-os	1G	-tu-	2B\	-os	2g\	-os.
1C	Cu-	.	.	1c	Cu-	1e	Cu-
=126-	=126-	=126-	=126-	=126-	=126-	=126-	=126-
.	.	1G,<	-os.	.	.	.	.
2BBny/	-i(us)	.	.	2d\	-ius	2d\	-i(us)
2C/	re-	1G	Cu-	2e\	re-	2c/	re-
2GG/	-gni	.	.	2d\	-gni	2B/	-gni
=127-	=127-	=127-	=127-	=127-	=127-	=127-	=127-
2r	.	1G,<	-ius	2.B\	non	2d\	non
2E\	non	.	.	.	.	1e	e-
.	.	.	.	4c\	.	.	.
2C/	e-	1G	re-	2r	.	.	.
*	*	*	*	*custos:e	*	*	*
2BB/	-rit	.	.	2d\	non	2d\	-rit
!	!	!	!	!LO:LB:g=original	!	!	!
=128-	=128-	=128-	=128-	=128-	=128-	=128-	=128-
2C/	fi-	1G,<	-gni	2e\	e-	2c/	fi-
2GG/	-nis	.	.	2d\	-rit	2B/	-nis
2r	.	1G	no(n)	2.B\	fi-	2g\	non
*	*ij	*	*	*	*	*	*
2E\	non	.	.	.	.	1e	e-
.	.	.	.	4c\	-nis	.	.
=129-	=129-	=129-	=129-	=129-	=129-	=129-	=129-
2C/	e-	1G	e-	2r	.	.	.
2BB/	-rit	.	.	2B\	non	2d\	-rit
0D	fi-	1F#X	-rit	2A/	e-	2.a\	fi-
.	.	.	.	2A/	-rit	.	.
.	.	.	.	.	.	4g\	.
=130-	=130-	=130-	=130-	=130-	=130-	=130-	=130-
!	!	!	!	!	!	!LO:TX:b:t=P:problem=# below	!
.	.	1A	fi-	1d	fi-	1f#X	.
2GG,</	-nis	1G	-nis.	2B,<\	-nis.	2g,<\	-nis.
*	*Xij	*	*	*	*	*	*
1C	Et	.	.	2c\	Et	1e	Et
=131-	=131-	=131-	=131-	=131-	=131-	=131-	=131-
.	.	1E	ET	1G	in	.	.
2C/	in	.	.	.	.	2c/	in
2.AA/	Spi-	1Fny	in	2.A/	Spi-	2.c/	Spi-
4AA/	-ri-	.	.	4A/	-ri-	4c/	-ri-
=132-	=132-	=132-	=132-	=132-	=132-	=132-	=132-
*	*	*	*	*	*	*custos:c	*
2GG/	-tu(m)	1G	Spi-	2B\	-tu(m)	2B/	-tu(m)
!	!	!	!	!	!	!LO:LB:g=original	!
1C	San-	.	.	1e	San-	1c	San-
.	.	1G	-ri-	.	.	.	.
2BB/	-ctu(m)	.	.	2d\	-ctu(m)	2d\	-ctu(m)
=133-	=133-	=133-	=133-	=133-	=133-	=133-	=133-
2.C/	Do-	1G,<	-tu(m)	2.c\	Do-	2.e\	Do-
4C/	-mi-	.	.	4c\	-mi-	4e\	-mi-
*custos:C	*	*	*	*	*	*	*
2GG/	-nu(m)	1G	San-	2B\	-nu(m)	2d\	-nu(m)
*	*	*	*	*	*	*	*ij
!LO:LB:g=original	!	!	!	!	!	!	!
1C	San-	.	.	1c	San-	1e	San-
=134-	=134-	=134-	=134-	=134-	=134-	=134-	=134-
.	.	1G	-ctu(m)	.	.	.	.
2BB/	-ct(um)	.	.	2d\	-ctu(m)	2d\	-ctu(m)
*lig	*	*	*	*	*	*	*
1C	Do-	1G	Do-	2.e\	D(o-	1c	Do-
.	.	.	.	4e\	-mi)-	.	.
=135-	=135-	=135-	=135-	=135-	=135-	=135-	=135-
1D	.	1F	-mi-	2d\	-nu(m)	1A	-mi-
.	.	.	.	1d	Do-	.	.
*Xlig	*	*	*	*	*	*	*
*	*	*custos:D	*	*	*	*	*
1AA	-mi-	1E	-num	.	.	2A/	-nu(m)
*	*	*	*	*	*	*	*Xij
!	!	!	!	!LO:TX:a:t=P:problem=# above	!	!	!
.	.	.	.	2c#X\	-mi-	2a\	et
!	!	!LO:PB:g=original	!	!	!	!	!
=136-	=136-	=136-	=136-	=136-	=136-	=136-	=136-
*	*	*lig	*	*	*	*	*
2D/	-nu(m)	1D	et	1d	-nu(m)	2fny\	Vi-
1F	et	.	.	.	.	2a\	-ui-
.	.	1A	.	2r	.	2a\	-fi-
2F\	Vi-	.	.	1cny	et	1f	-can-
*	*	*Xlig	*	*	*	*	*
=137-	=137-	=137-	=137-	=137-	=137-	=137-	=137-
2F\	-ui-	1A	Vi-	.	.	.	.
2F\	-fi-	.	.	2c\	Vi-	2f\	-te(m)
0D	-can-	1A	-ui-	2d\	-ui-	2f\	Vi-
.	.	.	.	2d\	-fi-	2f\	-ui-
=138-	=138-	=138-	=138-	=138-	=138-	=138-	=138-
*	*	*	*	*custos:c	*	*	*
.	.	1F	-fi-	1A	-can-	2d\	-fi-
.	.	.	.	.	.	2d\	-can-
!	!	!	!	!LO:LB:g=original	!	!	!
1AA	-te(m)	1A	-can-	1c,<	-tem	1e	-te(m)
=139-	=139-	=139-	=139-	=139-	=139-	=139-	=139-
1.C	qui	1G,<	-te(m)	1c	qui	1e	qui
.	.	1E	qui	1G	ex	2e\	ex
2C/	ex	.	.	.	.	1c	Pa-
=140-	=140-	=140-	=140-	=140-	=140-	=140-	=140-
1FF	Pa-	1F	ex	1A	Pa-	.	.
.	.	.	.	.	.	2c/	-tre
1C	-tre	1G	Pa-	1c	-tre	2.e\	Fi-
.	.	.	.	.	.	4f\	-li-
=141-	=141-	=141-	=141-	=141-	=141-	=141-	=141-
2.GG/	Fi-	1G,<	-tre	2.B\	Fi-	2g\	-o-
.	.	.	.	.	.	2e\	-q(ue)
4AA/	-li-	.	.	4c\	-li-	.	.
2BB/	-o-	1G	Fi-	2d\	-o-	2r	.
2C/	-que	.	.	2G/	-que	4e\	Fi-
.	.	.	.	.	.	4f\	-li-
=142-	=142-	=142-	=142-	=142-	=142-	=142-	=142-
*	*ij	*	*	*	*	*	*
2.GG/	Fi-	1G	-li-	2.B\	Fi-	2g\	-o-
.	.	.	.	.	.	2e\	-que
4AA/	-li-	.	.	4c\	-li-	.	.
2BB/	-o-	1G	-o-	2d\	-o-	2r	.
2C/	-que	.	.	2c\	-que	2e\	pro-
*	*Xij	*	*	*	*	*	*
=143-	=143-	=143-	=143-	=143-	=143-	=143-	=143-
*	*	*	*	*	*	*custos:d	*
1FF	pro-	1G	-que	1B	pro-	1d	-ce-
!	!	!	!	!	!	!LO:LB:g=original	!
*	*	*	*	*lig	*	*	*
0D	-ce-	1F	pro-	1A	-ce-	2d\	-dit
.	.	.	.	.	.	2a\	pro-
=144-	=144-	=144-	=144-	=144-	=144-	=144-	=144-
!	!	!	!	!	!	!LO:TX:a:t=P:problem=# above	!
.	.	1A	-ce-	1d	.	1f#X	-ce-
*	*	*	*	*Xlig	*	*	*
2GG/	-dit	1G,<	-dit	2B,<\	-dit	2g,<\	-dit
1C	Qui	.	.	2c\	qui	1e	qui
=145-	=145-	=145-	=145-	=145-	=145-	=145-	=145-
.	.	1E	qui	1G	cum	.	.
2C/	cu(m)	.	.	.	.	2e\	cu(m)
1AA	Pa-	1F	cu(m)	1A	Pa-	1c	Pa-
=146-	=146-	=146-	=146-	=146-	=146-	=146-	=146-
2GG/	-tre	1G	Pa-	2d\	-tre	2B/	-tre
1C/	et	.	.	1e\	et	1c	et
.	.	1G	-tre	.	.	.	.
*custos:C	*	*	*	*	*	*	*
2BB/	Fi-	.	.	2d\	Fi-	2d\	Fi-
!LO:LB:g=original	!	!	!	!	!	!	!
=147-	=147-	=147-	=147-	=147-	=147-	=147-	=147-
4C/	.	1G	et	2c\	-li-	4e\	.
4D/	.	.	.	.	.	4fny\	.
2E\	.	.	.	2B\	-o	1g	.
1D	-li-	1A	Fi-	2.d\	Si-	.	.
!	!	!	!	!	!	!LO:TX:a:t=P:problem=# above	!
.	.	.	.	.	.	2f#X\	-li-
.	.	.	.	4d\	-mul	.	.
=148-	=148-	=148-	=148-	=148-	=148-	=148-	=148-
*	*	*lig	*	*	*	*	*
2GG/	-o	1G	-li-	2B\	a-	2g\	-o
2C/	et	.	.	2c\	-do-	2e\	et
1.D	Fi-	1F	.	1.A	-ra-	1.d	Fi-
*	*	*Xlig	*	*	*	*	*
=149-	=149-	=149-	=149-	=149-	=149-	=149-	=149-
.	.	1F,<	-o	.	.	.	.
2D/	-li-	.	.	2A,</	-tur	2d\	-li-
*	*	*custos:F	*	*	*	*	*
!	!	!	!	!	!	!LO:TX:a:t=P:problem=# above	!
1AA	-o	1E	Si-	1A	Si-	1c#X	-o
!	!	!LO:LB:g=original	!	!	!	!	!
=150-	=150-	=150-	=150-	=150-	=150-	=150-	=150-
*	*	*	*	*custos:A	*	*	*
1D	Si-	1F	-mul	1A	-mul	2r	.
.	.	.	.	.	.	1d	Si-
!	!	!	!	!LO:PB:g=original	!	!	!
1AA	-mul	1E	a-	2.A/	a-	.	.
.	.	.	.	.	.	2cny/	-mul
.	.	.	.	4G/	.	.	.
=151-	=151-	=151-	=151-	=151-	=151-	=151-	=151-
2.BB-X/	a-	1D	-do-	2F/	.	2.d/	a-
.	.	.	.	2.F/	-do-	.	.
4AA/	-do-	.	.	.	.	4c/	-do-
1GG	-ra-	1G	-ra-	.	.	1B-X	-ra-
.	.	.	.	8E/L	-ra-	.	.
.	.	.	.	8D/J	.	.	.
.	.	.	.	2E/	.	.	.
=152-	=152-	=152-	=152-	=152-	=152-	=152-	=152-
2FF/	-tur	1A	-tur	2F,</	-tur,	2A/	-tur
2F\	et	.	.	2A/	et	2a\	et
*	*	*lig	*	*	*	*	*
2.F\	con-	1A	et	2c\	con-	2a\	con-
.	.	.	.	2c\	-glo-	2a\	-glo-
4F\	-glo-	.	.	.	.	.	.
=153-	=153-	=153-	=153-	=153-	=153-	=153-	=153-
2G\	-ri-	1B-X	.	2G/	-ri-	2g\	-ri-
2G\	-fi-	.	.	2d\	-fi-	2g\	-fi-
*	*	*Xlig	*	*	*	*	*
!	!	!	!	!	!	!LO:TX:b:t=P:problem=# below	!
1D	-ca-	1A	con-	0d	-ca-	1f#X	-ca-
=154-	=154-	=154-	=154-	=154-	=154-	=154-	=154-
*	*	*	*	*	*	*custos:a	*
!	!	!	!	!	!	!LO:TX:b:t=P:problem=# below	!
1D	-tur	1A	-glo-	.	.	1f#X	-tur
!	!	!	!	!	!	!LO:LB:g=original	!
2r	.	1A	-ri-	2c\	-tur	2rf	.
*	*ij	*	*	*	*ij	*	*ij
2D/	et	.	.	2f\	et	2a\	et
=155-	=155-	=155-	=155-	=155-	=155-	=155-	=155-
2D/	con-	1F	-fi-	2f\	con-	2a\	con-
2D/	-glo-	.	.	2f\	-glo-	2a\	-glo-
2F\	-ri-	1A	-ca-	2c\	-ri-	2fny\	-ri-
2F\	-fi-	.	.	2c\	-fi-	2f\	-fi-
=156-	=156-	=156-	=156-	=156-	=156-	=156-	=156-
1C,<	-ca-	[0Gl;	-tur.	1c	-ca-	1e	-ca-
*custos:E	*	*	*	*	*	*	*
[1Cl;	-tur	.	.	[1cl;	-tur	[1el;<	-tur
*	*Xij	*	*	*	*Xij	*	*Xij
!LO:PB:g=original	!	!	!	!	!	!	!
=157-	=157-	=157-	=157-	=157-	=157-	=157-	=157-
1C]	.	1G]	.	1c]	.	1e]	.
1E	Qui	1E	QVi	2r	.	1g	Qui
.	.	.	.	2G/	Qui	.	.
=158-	=158-	=158-	=158-	=158-	=158-	=158-	=158-
1D	lo-	1F	lo-	2.A/	lo-	4f\	lo-
.	.	.	.	.	.	4d\	.
.	.	.	.	.	.	1f	.
.	.	.	.	4B\	.	.	.
1.C	-cu-	1G	-cu-	2c\	-cu-	.	.
.	.	.	.	2c\	-tus	4e\	.
.	.	.	.	.	.	4d\	.
=159-	=159-	=159-	=159-	=159-	=159-	=159-	=159-
.	.	1G	-tus	2c\	e(st)	2e\	-cu-
2C/	-tus	.	.	2c\	per	2e\	-tus
2GG/	est	1G	est	2B\	Pro-	2d\	est
1C	per	.	.	1c	-phe-	1e	per
=160-	=160-	=160-	=160-	=160-	=160-	=160-	=160-
.	.	1G	per	.	.	.	.
*	*	*	*	*custos:A	*	*	*
2E\	Pro-	.	.	2G/	-tas,	2c/	Pro-
!	!	!	!	!LO:LB:g=original	!	!	!
0D	-phe-	1F	Pro-	2.A/	per	0d	-phe-
.	.	.	.	4G/	Pro-	.	.
=161-	=161-	=161-	=161-	=161-	=161-	=161-	=161-
!	!	!	!	!LO:TX:a:t=P:problem=# above	!	!	!
.	.	1A	-phe-	1F#X	-phe-	.	.
2GG/	-tas	1G,<	-tas	2G/	-tas	2Bny/	-tas
*	*	*	*	*	*ij	*	*
1C	per	.	.	2E/	per	2c/	per
=162-	=162-	=162-	=162-	=162-	=162-	=162-	=162-
.	.	1E	et	2G/	Pro-	1c	Pro-
2C/	P(ro)-	.	.	2G/	-phe-	.	.
1AA	-phe-	1F	V-	1A	-tas	1c	-phe-
*	*	*	*	*	*Xij	*	*
=163-	=163-	=163-	=163-	=163-	=163-	=163-	=163-
2GG/	-tas	1G	-nam	2r	.	2B,</	-tas
2C/	Et	.	.	2c\	Et	2e\	Et
2C/	V-	1G	San-	2c\	V-	2e\	V-
2BBny/	-na(m)	.	.	2d\	-nam	2d\	-na(m)
=164-	=164-	=164-	=164-	=164-	=164-	=164-	=164-
*	*	*custos:G	*	*	*	*	*
1C	San-	1G	-cta(m)	1e	San-	1c	San-
!	!	!LO:LB:g=original	!	!	!	!	!
2GG/	-cta(m)	1G	Ca-	1d	-cta(m)	2B/	-cta(m)
2GG/	Ca-	.	.	.	.	2B/	Ca-
=165-	=165-	=165-	=165-	=165-	=165-	=165-	=165-
1C	-tho-	1G	-tho-	1e	Ca-	1c	-tho-
1D	.	1F	-li-	4f\	.	1A	-li-
.	.	.	.	4e\	.	.	.
.	.	.	.	1d	-tho-	.	.
=166-	=166-	=166-	=166-	=166-	=166-	=166-	=166-
*	*	*	*	*	*	*custos:a	*
1AA	-li-	1E	-cam	.	.	2A/	-ca(m)
!	!	!	!	!LO:TX:a:t=P:problem=# above	!	!LO:LB:g=original	!
.	.	.	.	2c#X\	-li-	2a\	et
*	*	*lig	*	*	*	*	*
2D/	-cam	1D	et	1d	-cam	2f\	A-
2F\	et	.	.	.	.	2a\	-po-
=167-	=167-	=167-	=167-	=167-	=167-	=167-	=167-
2F\	A-	1A	.	2r	.	2.a\	-ſto-
2F\	-po-	.	.	2cny\	et	.	.
.	.	.	.	.	.	4a\	-li-
*	*	*Xlig	*	*	*	*	*
2.F\	-ſto-	1A	A-	2c\	A-	2f\	-cam
.	.	.	.	2c\	-po-	2f\	Ec-
4F\	-li-	.	.	.	.	.	.
=168-	=168-	=168-	=168-	=168-	=168-	=168-	=168-
2F\	-ca(m)	1A	-po-	2.c\	-sto-	1.f	-cle-
2F\	Ec-	.	.	.	.	.	.
.	.	.	.	4c\	-li-	.	.
*	*	*lig	*	*	*	*	*
2.D/	-cle-	1A	-ſto-	2d\	-cam	.	.
.	.	.	.	2d\	Ec-	2f\	-ſi-
*custos:C	*	*	*	*	*	*	*
4D/	-ſi-	.	.	.	.	.	.
!LO:LB:g=original	!	!	!	!	!	!	!
=169-	=169-	=169-	=169-	=169-	=169-	=169-	=169-
1C	-am	1c	.	2.G/	-cle-	1e	-am
.	.	.	.	4G/	-ſi-	.	.
*	*	*Xlig	*	*	*	*	*
1F	Ec-	1A	-li-	1A	-am	1c	Ec-
=170-	=170-	=170-	=170-	=170-	=170-	=170-	=170-
1.D	-cle-	1A	-cam	1d	Ec-	2.f\	-cle-
.	.	.	.	.	.	4e\	.
.	.	1F	Ec-	2.A/	-cle-	4d\	.
.	.	.	.	.	.	4e\	.
2D/	-ſi-	.	.	.	.	2.f\	.
*	*	*	*	*custos:c	*	*	*
.	.	.	.	4A/	-ſi-	.	.
!	!	!	!	!LO:LB:g=original	!	!	!
=171-	=171-	=171-	=171-	=171-	=171-	=171-	=171-
*	*	*lig	*	*	*	*	*
1C	-a(m)	1G	-cle-	1c	-am	.	.
.	.	.	.	.	.	8e\L	.
.	.	.	.	.	.	8d\J	.
.	.	.	.	.	.	2e\	-ſi-
1FF	Ec-	1A	.	2c\	Ec-	2f\	-am
.	.	.	.	1c	-cle-	2f\	Ec-
*	*	*Xlig	*	*	*	*	*
=172-	=172-	=172-	=172-	=172-	=172-	=172-	=172-
1.GG	-cle-	1G	-ſi-	.	.	1.d	-cle-
.	.	.	.	4B\	.	.	.
.	.	.	.	4A\	.	.	.
.	.	1G,<	-am.	2B\	.	.	.
2GG/	-ſi-	.	.	2B\	-ſi-	2d\	-ſi-
=173-	=173-	=173-	=173-	=173-	=173-	=173-	=173-
2C/	-am	1E	Con-	2G,</	-am	2e\	-am
2C/	Con-	.	.	2c\	Con-	2g\	Con-
2.D/	-fi-	1F	-fi-	2.A/	-fi-	2.f\	-fi-
4D/	-te-	.	.	4A/	-te-	4f\	-te-
=174-	=174-	=174-	=174-	=174-	=174-	=174-	=174-
1C	-or	1G	-te-	2c\	-or	1e	-or
.	.	.	.	1c	V-	.	.
1.GG	V-	1G	-or	.	.	1.d	V-
.	.	.	.	4B\	.	.	.
.	.	.	.	4A\	.	.	.
=175-	=175-	=175-	=175-	=175-	=175-	=175-	=175-
.	.	1G	V-	1B	.	.	.
2GG/	-num	.	.	.	.	2d\	-num
1D	Bap-	1F	-num	2A/	-num	2f\	ba-
.	.	.	.	2A/	Bap-	1d	-pti-
=176-	=176-	=176-	=176-	=176-	=176-	=176-	=176-
1AA	-ti-	1E	Ba-	1A	-tiſ-	.	.
!	!	!	!	!	!	!LO:TX:b:t=P:problem=# below	!
.	.	.	.	.	.	2c#X/	.
1D	-ſma	1F	-pti-	2A/	-ma	1d	-ſma
.	.	.	.	2d\	in	.	.
=177-	=177-	=177-	=177-	=177-	=177-	=177-	=177-
2r	.	1D	-ſma	2.A/	re-	2r	.
*	*	*	*	*	*	*custos:e	*
2D/	in	.	.	.	.	2f\	in
.	.	.	.	4B\	.	.	.
!	!	!	!	!	!	!LO:LB:g=original	!
2AA/	re-	1E	in	2c\	-miſ-	2e\	re-
2C/	-miſ-	.	.	2G/	-si-	1cny	-miſ-
=178-	=178-	=178-	=178-	=178-	=178-	=178-	=178-
*	*	*custos:E	*	*	*	*	*
2.FF/	-si-	1F	re-	0A	-o-	.	.
.	.	.	.	.	.	1d	-si-
4GG/	.	.	.	.	.	.	.
!	!	!LO:LB:g=original	!	!	!	!	!
1AA	-o-	1E	-miſ-	.	.	.	.
.	.	.	.	.	.	2c/	-o-
=179-	=179-	=179-	=179-	=179-	=179-	=179-	=179-
2D/	.	1D	-si-	2Fny/	-nem	2d\	-ne(m)
2D/	-nem	.	.	2A/	pec-	2f\	pec-
2C/	pec-	1G	-o-	2c\	-ca-	4e\	-ca-
.	.	.	.	.	.	4f\	.
2E\	-ca-	.	.	4B\	.	1g	.
.	.	.	.	4c\	.	.	.
=180-	=180-	=180-	=180-	=180-	=180-	=180-	=180-
1D	-to-	1A,<	-nem	[2d\	-to-	.	.
!	!	!	!	!	!	!LO:TX:a:t=P:problem=# above	!
.	.	.	.	2d\]	.	2f#X\	-to-
2GG/	-ru(m)	1G	pec-	2B\	-ru(m)	2g\	-rum
*custos:D	*	*	*	*	*	*	*
2C/	pec-	.	.	2c\	pec-	2e\	pec-
!LO:LB:g=original	!	!	!	!	!	!	!
=181-	=181-	=181-	=181-	=181-	=181-	=181-	=181-
*	*	*	*	*custos:d	*	*	*
1.D	-ca-	1F	-ca-	1A	-ca-	2.d\	-ca-
.	.	.	.	.	.	4e\	.
!	!	!	!	!LO:LB:g=original	!	!LO:TX:a:t=P:problem=# above	!
.	.	1A	-to-	1d	-to-	4f#X\	.
.	.	.	.	.	.	2g\	.
2D/	-to-	.	.	.	.	.	.
!	!	!	!	!	!	!LO:TX:a:t=P:problem=# above	!
.	.	.	.	.	.	4f#X\	-to-
=182-	=182-	=182-	=182-	=182-	=182-	=182-	=182-
2GG,</	-rum	1G,<	-rum.	2B,<\	-rum	2g\	-ru(m)
1C	Et	.	.	1c	Et	1e	Et
.	.	1E	Et	.	.	.	.
2C/	ex-	.	.	2c\	ex-	2g\	ex-
=183-	=183-	=183-	=183-	=183-	=183-	=183-	=183-
1D	-pe-	1F	ex-	1A	-pe-	4fny\	-pe-
.	.	.	.	.	.	4d\	.
.	.	.	.	.	.	2.f\	.
1C	-cto	1G	-pe-	1c	-cto	.	.
.	.	.	.	.	.	8e\L	.
.	.	.	.	.	.	8d\J	.
.	.	.	.	.	.	2e\	-cto
=184-	=184-	=184-	=184-	=184-	=184-	=184-	=184-
1FF	re-	1F	-cto	2.A/	re-	2f\	.
.	.	.	.	.	.	2c/	re-
.	.	.	.	4A/	-ſur-	.	.
1C	-ſur-	1E	re-	2G/	-rec-	2c/	-ſur-
.	.	.	.	2G/	-ti-	2.c/	-rec-
=185-	=185-	=185-	=185-	=185-	=185-	=185-	=185-
2.FF/	-rec-	1F	-ſur-	1A	-o-	.	.
.	.	.	.	.	.	4c/	-ti-
.	.	.	.	.	.	1d\	-o-
4GG/	-ti-	.	.	.	.	.	.
1AA	-o-	1E	-rec-	1A	-nem	.	.
!	!	!	!	!	!	!LO:TX:b:t=P:problem=# below	!
.	.	.	.	.	.	2c#X/	-ne(m)
=186-	=186-	=186-	=186-	=186-	=186-	=186-	=186-
2D/	.	1D	-ti-	4F/	mor-	2d\	mor-
.	.	.	.	4G/	.	.	.
2D/	-nem	.	.	4A/	.	2f\	-tu-
.	.	.	.	4B\	.	.	.
2C/	mor-	1G	-o-	2c\	.	4e\	-o-
*	*	*	*	*	*	*custos:g	*
.	.	.	.	.	.	4f\	.
!	!	!	!	!	!	!LO:LB:g=original	!
2E\	-tu-	.	.	4B\	.	1g	.
.	.	.	.	4c\	.	.	.
=187-	=187-	=187-	=187-	=187-	=187-	=187-	=187-
1D	-o-	1A,<	-nem	2d\	-tu-	.	.
.	.	.	.	2d\	-o-	2f#X\	.
2GG/	-rum	1G	mor-	2B\	-rum	2g\	-ru(m)
2C/	mor-	.	.	2c\	mor-	2e\	.
=188-	=188-	=188-	=188-	=188-	=188-	=188-	=188-
1D	-tu-	1F	-tu-	2.A/	.	1d	mor-
.	.	.	.	4G/	-tu-	.	.
1D	-o-	1A	-o-	1F#X	-o-	2d\	-tu-
.	.	.	.	.	.	2d\	-o-
=189-	=189-	=189-	=189-	=189-	=189-	=189-	=189-
1GG,<	-r(um)	1G,<	-rum.	2G/	-r(um)	2B/	-r(um)
.	.	.	.	1G	Et	2d\	Et
1C	Et	1E	Et	.	.	2e\	Vi-
.	.	.	.	1A	Vi-	2cny/	-ta(m)
=190-	=190-	=190-	=190-	=190-	=190-	=190-	=190-
1D	Vi-	1F	Vi-	.	.	1fny	Ven-
.	.	.	.	2B\	-tam	.	.
*	*	*custos:F	*	*	*	*	*
2C/	-tam	1G	-ta(m)	2.c\	Ven-	1e	-tu-
2C/	Ven-	.	.	.	.	.	.
.	.	.	.	4c\	-tu-	.	.
!	!	!LO:LB:g=original	!	!	!	!	!
=191-	=191-	=191-	=191-	=191-	=191-	=191-	=191-
2.FF/	-tu-	1F	Ven-	2A/	-ri	2c/	-ri
.	.	.	.	1d\	Sae-	1A	Sae-
4GG/	.	.	.	.	.	.	.
1AA	.	1E	-tu-	.	.	.	.
!	!	!	!	!LO:TX:a:t=P:problem=# above	!	!	!
.	.	.	.	4c#X\	.	2A/	-cu-
*	*	*	*	*custos:c#	*	*	*
.	.	.	.	4B\	.	.	.
!	!	!	!	!LO:LB:g=original	!	!	!
=192-	=192-	=192-	=192-	=192-	=192-	=192-	=192-
*custos:F	*	*	*	*	*	*	*
!	!	!	!	!LO:TX:a:t=P:problem=# above	!	!	!
1AA	-ri.	1E	-ri	2c#X\	.	2A/	-li
!	!	!	!	!LO:TX:a:t=P:problem=# above	!	!	!
.	.	.	.	2c#X\	-cu-	1a	Sae-
!LO:LB:g=original	!	!	!	!	!	!	!
2r	.	1D	Sae-	1d	-li	.	.
1F	Sae-	.	.	.	.	2a\	-cu-
=193-	=193-	=193-	=193-	=193-	=193-	=193-	=193-
*	*	*lig	*	*	*	*	*
.	.	1A	.	2rd	.	2f\	-li
2F\	-cu-	.	.	1f	Sae-	2.a\	A-
2D\	-li	1B-X	.	.	.	.	.
.	.	.	.	.	.	8g\L	.
.	.	.	.	.	.	8f\J	.
2E\	A-	.	.	4e\	-cu-	2g\	.
.	.	.	.	4d\	-li	.	.
*	*	*Xlig	*	*	*	*	*
=194-	=194-	=194-	=194-	=194-	=194-	=194-	=194-
2.F\	-me(n)	1A	-cu-	1cny	A-	2a,<\	-men
.	.	.	.	.	.	2f\	Et
4FF/	Et	.	.	.	.	.	.
2FF/	Vi-	1A	-li	2c,<\	-men	2f\	Vi-
2FF/	-ta(m)	.	.	2c\	Ven-	2f\	-tam
=195-	=195-	=195-	=195-	=195-	=195-	=195-	=195-
*	*	*lig	*	*	*	*	*
2.AA/	Ven-	1A	A-	2c\	-tu-	2e\	Ven-
.	.	.	.	2c\	-ri	2.f\	-tu-
4BB/	.	.	.	.	.	.	.
1C	-tu-	1G	.	2.c\	Sae-	.	.
.	.	.	.	.	.	8e\L	.
.	.	.	.	.	.	8d\J	.
.	.	.	.	.	.	2e\	.
.	.	.	.	4c\	-cu-	.	.
*	*	*Xlig	*	*	*	*	*
=196-	=196-	=196-	=196-	=196-	=196-	=196-	=196-
1FF	-ri	0F	.	2A/	-li	2f\	-ri
.	.	.	.	2.A/	Sae-	2.c/	Sae-
2r	.	.	.	.	.	.	.
.	.	.	.	4A/	-cu-	4c/	-cu-
1F\	Sae-	.	.	2A/	-li	2f\	-li
=197-	=197-	=197-	=197-	=197-	=197-	=197-	=197-
*	*	*lig	*	*	*	*	*
.	.	1G	.	2B\	A-	2d\	A-
*	*	*	*	*	*	*custos:f	*
2E\	-cu-	.	.	2c\	-men	2e\	-me(n),
!	!	!	!	!	!	!LO:LB:g=original	!
2F\	-li	1A	.	2r	.	2r	.
2F\	A-	.	.	1c	Sae-	1f	Sae-
*	*	*Xlig	*	*	*	*	*
=198-	=198-	=198-	=198-	=198-	=198-	=198-	=198-
*	*	*lig	*	*	*	*	*
1C	-men	1G	.	.	.	.	.
.	.	.	.	2c\	-cu-	1e\	-cu-
1D	Sae-	1F	.	0A	-li	.	.
.	.	.	.	.	.	1d\	-li
*	*	*Xlig	*	*	*	*	*
=199-	=199-	=199-	=199-	=199-	=199-	=199-	=199-
2AA/	-cu-	1E	.	.	.	.	.
2AA/	-li	.	.	.	.	2c#X/	A-
0BB-X	A-	0D	.	1Fny	A-	2d/	-men
.	.	.	.	.	.	1f\	A-
=200-	=200-	=200-	=200-	=200-	=200-	=200-	=200-
.	.	.	.	1G	.	.	.
.	.	.	.	.	.	4e\	.
.	.	.	.	.	.	4d\	.
!	!	!LO:TX:b:i:t=Sequitur Miſsa Pulcherrima auct(orem?) Barth. \nPekel Capella Magiſtro(?) ſ. R M. ex eiusd(em?) Origi-\nnali deſcripta per MM Praep(osi)t(us) Capellae A.D. 1669.\nVltima Januaris. A M D G.\n= Matthias Miśkiewicz.\n(Ks. Surzyński)	!	!	!	!	!
!	!	!LO:TX:a:t=A M D G.\nR M A M ſcripsit\nR R. mpp AD 1668 17 Febr.	!	!	!	!LO:TX:a:t=P:problem=# above	!
1AA	-me(n)	[1El;	-men.	1A	-men	1c#X	-men
=201-	=201-	=201-	=201-	=201-	=201-	=201-	=201-
2r	.	0E_	.	2r	.	2r	.
*	*ij	*	*	*	*	*	*
2.C/	Sae-	.	.	2G/	Sae-	2.e\	Sae-
.	.	.	.	2A/	-cu-	.	.
4C/	-cu-	.	.	.	.	4e\	-cu-
2GG/	-li	.	.	2B\	-li	2d\	-li
=202-	=202-	=202-	=202-	=202-	=202-	=202-	=202-
1AA	A-	0E_	.	4c\	A-	1cny	A-
.	.	.	.	4B\	.	.	.
.	.	.	.	1A	.	.	.
!LO:TX:b:t=B P. C. M\nS. R. M.	!	!	!	!	!	!LO:TX:a:t=A.M.D.G.	!
!	!	!	!	!	!	!LO:TX:b:i:t=Sequitur Miſsa. S. D. \nBartholomaeo Pekel\nPulcherrima. adinſta(?)\nPraeneſtini.	!
[1EEl;	-me(n)	.	.	.	.	[1Bl	-men.
*	*Xij	*	*	*	*	*	*
.	.	.	.	4G/	.	.	.
!	!	!	!	!LO:TX:b:t=P:problem=# below	!	!	!
.	.	.	.	4F#X/	.	.	.
=203-	=203-	=203-	=203-	=203-	=203-	=203-	=203-
!	!	!	!	!LO:TX:b:t=AMDG.	!	!	!
0EE]	.	0E]	.	0Gl;	-men.	0B]	.
==	==	==	==	==	==	==	==
*-	*-	*-	*-	*-	*-	*-	*-
!!!system-decoration: [g1]
!!!RDF**kern: > = above
!!!RDF**kern: < = below
!!!RDF**kern: l = terminal long
!!!ENC: Andrzej Kubiczek
!!!END: 2021-03-14
!!!ENC: Mateusz Solarz
!!!END: 2021-03-01
